X:1
T: The Dew-Drop Hornpipe
C:
R:Reel
Q: 232
K:A
M:4/4
L:1/8
|:e2|ac' ae ca ec|Ae cA E2 c2|df Bd ce Ac|BE GB ee fg|
ac' ae ca ec|Ae cA E2 c2|df Bd ce Ac|BE GB A2:|
|:a2|ge bg eg bg|ae c'a ea c'a|d'b c'a bg af|e^d ef e=d cB|
Ac ec ae c'e|Be ge be d'c'|ba gf ed cB|A2 a2 A2:|
